X:111
T: EINEM DER EINST AUF DER JAGD
N: B0599
O: Europa, Mitteleuropa, Deutschland
R: Staende -, Jaeger - Lied
M: 2/4
L: 1/16
K: G
 | B2B2A2A2 | G3FF4 |
E2F2G2FE | E4D4 |
D2D2G2B2 | d2Bcd4 |
d2A2A2Bc | c4B4 |
D2D2G2B2 | d2Bcd4 |
d2A2c2BA | A4G4

@@@ Tune index: 2329
